X:31
T:Miss Grant of Monymusk's Jigg
C:Robert Petrie
S:Petrie's Collection of Strathspey Reels and Country Dances &c., 1790
Z:Steve Wyrick , 2/27/04
N:Petrie's First Collection, page 14
L:1/8
M:6/8
R:Jig
K:C
  G|c2c Bcd|cGE  CEG|c2c Bcd|c2c  c2G |
    A2A AGF|G2G  GFE|AGF EDC|B,2G G,2:|
|:G|d2d def|gec TcBc|d2d def|g2f  e2g |
    a2a agf|efg  gfe|dfe dcB|c2c  c2 :|
